X:1
T:Title
%%score { ( 1 3 ) | 2 }
L:1/8
Q:1/4=108
M:4/4
K:Ab
V:1 treble nm="Grand Piano"
V:3 treble 
V:2 bass 
V:1
 [CE]4 [CE]3 [DF] | [CE]2 [EA]2 [DG]2 [CA]2 | B3 =A B2 c2 | B8 | [Ec]4 [CE]3 [CE] | %5
w: Oren~R.~Barrows * *|||||
 [DF]2 [FA]2 [EA]2 [FB]2 | c2 A2 c2 B2 | [CA]8 | [CE]4 [CE]3 [DF] | [CE]2 [EA]2 [DG]2 [CA]2 | %10
w: |||||
 B3 =A B2 c2 | B8 | [Ec]4 [CE]3 [CE] | [DF]2 [FA]2 [EA]2 [FB]2 | c2 A2 c2 B2 | [CA]8 | e4 e3 f | %17
w: |||||||
 e2 c2 B2 A2 | [FA]3 [FB] [FA]2 [DF]2 | [FA]8 | [Ee]4 e3 f | e2 c2 B2 A2 | G3 A G2 [=DF]2 | E8 | %24
w: |||||||
 [CE]4 [CE]3 [DF] | [CE]2 [EA]2 [DG]2 [CA]2 | B3 =A B2 c2 | B8 | [Ec]4 [CE]3 [CE] | %29
w: |||||
 [DF]2 [FA]2 [EA]2 [FB]2 | c2 A2 c2 B2 |[M:8/4] [CA]8 z8 |] %32
w: |||
V:2
 [A,,A,]4 [A,,A,]3 [A,,A,] | [A,,A,]2 [C,A,]2 [B,,E,]2 [A,,A,]2 | %2
 [E,G,E]3 [E,_G,E] [E,=G,E]2 [E,A,E]2 | [E,G,E]8 | [A,,A,]4 [A,,A,]3 [A,,A,] | %5
 [D,A,]2 [D,A,]2 [C,A,]2 [D,A,]2 | [E,A,E]2 [E,A,C]2 [E,A,E]2 [E,G,D]2 | [A,,A,]8 | %8
 [A,,A,]4 [A,,A,]3 [A,,A,] | [A,,A,]2 [C,A,]2 [B,,E,]2 [A,,A,]2 | %10
 [E,G,E]3 [E,_G,E] [E,=G,E]2 [E,A,E]2 | [E,G,E]8 | [A,,A,]4 [A,,A,]3 [A,,A,] | %13
 [D,A,]2 [D,A,]2 [C,A,]2 [D,A,]2 | [E,A,E]2 [E,A,C]2 [E,A,E]2 [E,G,D]2 | [A,,A,]8 | %16
 [A,CA]4 [A,CA]3 [A,DA] | [A,CA]2 [A,EA]2[K:bass] [A,DE]2 [A,CE]2 | [D,D]3 [D,D] [D,D]2 [D,A,]2 | %19
 [D,A,]8 | [C,A,]4 [A,,CA]3 [A,,DA] | [A,CA]2 [A,EA]2 [A,DE]2 [A,CE]2 | %22
 [B,E]3 [B,F][K:bass] [B,E]2 [B,,A,]2 | [E,G,]8 | [A,,A,]4 [A,,A,]3 [A,,A,] | %25
 [A,,A,]2 [C,A,]2 [B,,E,]2 [A,,A,]2 | [E,G,E]3 [E,_G,E] [E,=G,E]2 [E,A,E]2 | [E,G,E]8 | %28
 [A,,A,]4 [A,,A,]3 [A,,A,] | [D,A,]2 [D,A,]2 [C,A,]2 [D,A,]2 | %30
 [E,A,E]2 [E,A,C]2 [E,A,E]2 [E,G,D]2 |[M:8/4] [A,,A,]8 z8 |] %32
V:3
 x8 | x8 | x8 | x8 | x8 | x8 | x8 | x8 | x8 | x8 | x8 | x8 | x8 | x8 | x8 | x8 | x8 | x8 | x8 | %19
 x8 | x8 | x8 | x8 | z4 z2 D2 | x8 | x8 | x8 | x8 | x8 | x8 | x8 |[M:8/4] x16 |] %32

